X: 30062
M: 4/4
L: 1/8
K: Eb
V: 1 staves=2
|:\
e3 d c B A G | Fc c4 c2 |\
V: 2 clef=bass middle=d
|:\
e3 e e e d e | B2 B4 z2 |\
e3 e e e B B | e6 A2 |\


